assets/svg/1F374.svg

<svg xmlns="http://www.w3.org/2000/svg" viewBox="0 0 64 64" enable-background="new 0 0 64 64"><path fill="#a7a8ac" d="m32.359 38.28c0 0 4.289-36.29 9.414-38.28 1.729 0 3.138 1.407 3.138 3.137v22.487 12.653 22.486c0 1.731-1.407 3.137-3.138 3.137-1.734 0-3.135-1.404-3.135-3.137v-19.572c-2.722-.336-6.07-1.136-6.279-2.914"/><path fill="#d1d2d3" d="m34.46 37.32c0 0 3.571-33.09 7.838-34.901 1.443 0 2.612 1.283 2.612 2.86v20.501 11.54 20.498c0 1.578-1.169 2.859-2.612 2.859-1.442 0-2.612-1.281-2.612-2.859v-17.843c-2.266-.307-5.05-1.036-5.226-2.655"/><path fill="#a7a8ac" d="m30.22.039c-1.179 0-2.132 1.936-2.132 2.702v7.211c-.077-.001-.154-.043-.23-.043h-1.131v-7.169c0-.766-.957-2.702-2.138-2.702-1.183 0-2.14 1.936-2.14 2.702v7.168h-.95c-.078 0-.149.033-.226.041v-7.209c0-.766-.957-2.702-2.136-2.702-1.185.0001-2.136 1.937-2.136 2.702v15.54c0 4.379 2.785 5.448 4.498 5.448h.452v36.844c0 1.82 1.224 3.289 2.73 3.289 1.504 0 2.722-1.469 2.722-3.289v-36.843h.456c1.712 0 4.501 0 4.501-5.448v-15.541c0-.765-.957-2.701-2.14-2.701"/><path fill="#d1d2d3" d="m23.847 22.09c-2.817-2.506-6.246-.808-5.104-21.98-.996.358-1.743 1.948-1.743 2.626v15.54c0 4.379 2.785 5.448 4.498 5.448h.452v36.844c0 1.462.8 2.658 1.897 3.089v-41.567"/></svg>

<?xml version="1.0" encoding="UTF-8" standalone="no"?>
<!-- Generator: Adobe Illustrator 16.0.0, SVG Export Plug-In . SVG Version: 6.00 Build 0)  -->

<svg
   xmlns:dc="http://purl.org/dc/elements/1.1/"
   xmlns:cc="http://creativecommons.org/ns#"
   xmlns:rdf="http://www.w3.org/1999/02/22-rdf-syntax-ns#"
   xmlns:svg="http://www.w3.org/2000/svg"
   xmlns="http://www.w3.org/2000/svg"
   xmlns:sodipodi="http://sodipodi.sourceforge.net/DTD/sodipodi-0.dtd"
   xmlns:inkscape="http://www.inkscape.org/namespaces/inkscape"
   version="1.1"
   id="Layer_1"
   x="0px"
   y="0px"
   width="64px"
   height="64px"
   viewBox="0 0 64 64"
   enable-background="new 0 0 64 64"
   xml:space="preserve"
   inkscape:version="0.48.5 r10040"
   sodipodi:docname="1F374.svg"
   inkscape:export-filename="D:\TESTINGEMOJI\SVGTEST\1F374.png"
   inkscape:export-xdpi="90"
   inkscape:export-ydpi="90"><metadata
   id="metadata3071"><rdf:RDF><cc:Work
       rdf:about=""><dc:format>image/svg+xml</dc:format><dc:type
         rdf:resource="http://purl.org/dc/dcmitype/StillImage" /><dc:title></dc:title></cc:Work></rdf:RDF></metadata><defs
   id="defs3069" /><sodipodi:namedview
   pagecolor="#ffffff"
   bordercolor="#666666"
   borderopacity="1"
   objecttolerance="10"
   gridtolerance="10"
   guidetolerance="10"
   inkscape:pageopacity="0"
   inkscape:pageshadow="2"
   inkscape:window-width="640"
   inkscape:window-height="480"
   id="namedview3067"
   showgrid="false"
   inkscape:zoom="3.6875"
   inkscape:cx="32"
   inkscape:cy="32"
   inkscape:window-x="435"
   inkscape:window-y="232"
   inkscape:window-maximized="0"
   inkscape:current-layer="Layer_1" />
<g
   id="g3057">
	<path
   fill="#A7A8AC"
   d="M32.359,38.277c0,0,4.289-36.289,9.414-38.277c1.729,0,3.138,1.407,3.138,3.137v22.487v12.653v22.486   c0,1.731-1.407,3.137-3.138,3.137c-1.734,0-3.135-1.404-3.135-3.137V41.191C35.916,40.855,32.573,40.055,32.359,38.277z"
   id="path3059" />
	<path
   fill="#D1D2D3"
   d="M34.46,37.324c0,0,3.571-33.085,7.838-34.901c1.443,0,2.612,1.283,2.612,2.86v20.501v11.54v20.498   c0,1.578-1.169,2.859-2.612,2.859c-1.442,0-2.612-1.281-2.612-2.859V39.979C37.42,39.672,34.639,38.943,34.46,37.324z"
   id="path3061" />
	<path
   fill="#A7A8AC"
   d="M30.219,0.039c-1.179,0-2.132,1.936-2.132,2.702v7.211c-0.077-0.01-0.154-0.043-0.23-0.043h-1.131V2.74   c0-0.766-0.957-2.702-2.138-2.702c-1.183,0-2.14,1.936-2.14,2.702v7.168h-0.95c-0.078,0-0.149,0.033-0.226,0.041V2.74   c0-0.766-0.957-2.702-2.136-2.702C17.951,0.039,17,1.975,17,2.74v15.54c0,4.379,2.785,5.448,4.498,5.448h0.452v36.844   c0,1.82,1.224,3.289,2.73,3.289c1.504,0,2.722-1.469,2.722-3.289V23.729h0.456c1.712,0,4.501,0,4.501-5.448V2.74   C32.359,1.975,31.402,0.039,30.219,0.039z"
   id="path3063" />
	<path
   fill="#D1D2D3"
   d="M23.847,22.094c-2.817-2.506-6.246-0.808-5.104-21.98C17.747,0.472,17,2.062,17,2.74v15.54   c0,4.379,2.785,5.448,4.498,5.448h0.452v36.844c0,1.462,0.8,2.658,1.897,3.089V22.094z"
   id="path3065" />
</g>
</svg>
